X: 9
T: Charlie Hunter
R: jig
M: 6/8
L: 1/8
K: Dmaj
|: A | DFA GBd | Adf a2g | fed Bcd | ecA GFE |
DFA GBd | Adf a2g | fef gec | edc d2 :|
f/2g/2 | afd d2c | BGG G2F | E^GB e2d | cAA Aag|
fdA FDF | GBd g2a/2g/2 | fef gec | edc d2 :|


Tune 809	Setting 13962

